X:1
T:Hermas, 11.11.11.11
T:Hermas, 11.11.11.11
T:Frances Ridley Havergal, 1871
T:Public Domain Courtesy of the Cyber Hymnal™
C:Frances Ridley Havergal, 1871
Z:Public Domain
Z:Courtesy of the Cyber Hymnal™
%%score ( 1 2 ) ( 3 4 )
L:1/8
Q:1/4=113
M:4/4
K:G
V:1 treble 
V:2 treble 
V:3 bass 
V:4 bass 
V:1
 [DB]3 [DB] [DB]2 [CA]2 | [B,G]4 [B,E]4 | [Cc]3 [DB] [EA]2 [EG]2 | [DF]8 | %4
 [Dd]2 [FA]2 [GB]2 [Fc]2 | [GB]4 [DG]4 | [DA]3 [EG] [DF]2 [^CE]2 | D8 | D2 D2 [DE]2 [DF]2 | %9
 [DA]4 [DG]4 | G2 G2 [Gc]2 c2 | [^DB]8 | (G2 A)([B,A] [EB]2) [Gc]2 x | [Dd]4 D4 | %14
 [CE]2 [Ec]2 [GB]2 [FA]2 | G8 | [GB]3 [GB] [GB]2 [FA]2 | G4 [B,E]4 | [Cc]3 [DB] [EA]2 [EG]2 | %19
 [DF]8 | [B,G]2 [CA]2 [DB]2 [Ec]2 | [Dd]4 D4 | [CE]2 [Ec]2 [GB]2 [FA]2 | [B,G]8 |] %24
V:2
 x8 | x8 | x8 | x8 | x8 | x8 | x8 | D8 | D2 D2 x4 | x8 | G2 G2 (FE) x2 | x8 | B,3 x6 | x4 D4 | x8 | %15
 G8 | x8 | G4 x4 | x8 | x8 | x8 | x4 D4 | x8 | x8 |] %24
V:3
 [G,,G,]3 [G,,G,] [B,,G,]2 [D,F,]2 | [E,G,]4 [E,G,]4 | [A,,G,]3 [B,,^G,] [C,A,]2 [^C,A,]2 | %3
 [D,A,]8 | [D,F,]2 [C,A,]2 [B,,D]2 [A,,D]2 | [G,,D]4 [G,B,]4 | [F,A,]3 [G,B,] A,2 [A,,G,]2 | %7
 [D,F,]8 | [D,F,]2 [D,F,]2 [D,G,]2 [D,A,]2 | [D,C]4 [D,B,]4 | [E,B,]2 [E,B,]2 [A,,B,]2 (A,G,) | %11
 [B,,F,]8 | E,3 F,2 [E,G,]2 [E,G,]2 | [D,F,]4 [B,,G,]4 | [C,G,]2 [A,,A,]2 [D,B,]2 [D,C]2 | %15
 [G,,B,]8 | [G,,D]3 [G,,D] [B,,D]2 [D,C]2 | [E,B,]4 [E,G,]4 | [A,,A,]3 [B,,^G,] [C,A,]2 [^C,A,]2 | %19
 [D,A,]8 | [E,G,]2 [E,G,]2 [D,G,]2 [C,G,]2 | [B,,G,]4 [B,,G,]4 | [C,G,]2 [A,,A,]2 [D,B,]2 [D,C]2 | %23
 [G,,G,]8 |] %24
V:4
 x8 | x8 | x8 | x8 | x8 | x8 | x4 A,2 x2 | x8 | x8 | x8 | x6 A,,2 | x8 | x3 E, x5 | x8 | x8 | x8 | %16
 x8 | x8 | x8 | x8 | x8 | x8 | x8 | x8 |] %24

